src/components/00-materials/images-raw/Tractor.svg

<svg width="96" height="96" viewBox="0 0 96 96" fill="none" xmlns="http://www.w3.org/2000/svg">
<path d="M7.44995 65.8002C7.44995 69.2317 8.46751 72.5861 10.374 75.4393C12.2804 78.2925 14.9901 80.5163 18.1604 81.8295C21.3307 83.1427 24.8192 83.4863 28.1848 82.8168C31.5503 82.1474 34.6418 80.4949 37.0683 78.0685C39.4947 75.6421 41.1471 72.5506 41.8166 69.185C42.486 65.8194 42.1424 62.3309 40.8293 59.1606C39.5161 55.9903 37.2923 53.2806 34.4391 51.3742C31.5859 49.4678 28.2315 48.4502 24.7999 48.4502C20.2009 48.4581 15.7924 50.2886 12.5404 53.5407C9.28837 56.7927 7.45788 61.2011 7.44995 65.8002V65.8002ZM15.04 65.8002C15.04 63.8699 15.6124 61.9829 16.6848 60.3778C17.7573 58.7728 19.2816 57.5218 21.065 56.7831C22.8484 56.0444 24.8108 55.8511 26.704 56.2277C28.5973 56.6043 30.3364 57.5339 31.7013 58.8988C33.0663 60.2638 33.9958 62.0029 34.3724 63.8961C34.749 65.7894 34.5557 67.7518 33.817 69.5352C33.0783 71.3186 31.8273 72.8429 30.2223 73.9153C28.6173 74.9878 26.7303 75.5602 24.7999 75.5602C23.5149 75.5655 22.2414 75.3169 21.0527 74.8288C19.8639 74.3406 18.7833 73.6226 17.8727 72.7157C16.9622 71.8089 16.2397 70.7312 15.7467 69.5444C15.2537 68.3577 14.9999 67.0853 15 65.8002H15.04Z" stroke="#00008F" stroke-width="2" stroke-linejoin="round"/>
<path d="M6 49.7002L9.32 52.0902C10.9455 49.8505 13.0406 47.993 15.4588 46.6474C17.877 45.3019 20.5599 44.5008 23.32 44.3002L24.32 44.2002C36.32 43.4702 45.38 53.2602 45.93 65.3902H57.52C59.39 59.6702 64.68 56.0802 71.02 56.0802C77.36 56.0802 82.76 59.6702 84.52 65.3902H87.12C92 65.3902 92 64.6602 92 63.5202L91.79 46.0702C91.48 42.6402 90.55 40.1502 86.6 40.1502H76.52V30.5802C76.4886 30.1893 76.3112 29.8246 76.023 29.5587C75.7349 29.2927 75.3571 29.145 74.965 29.145C74.5729 29.145 74.1951 29.2927 73.907 29.5587C73.6188 29.8246 73.4414 30.1893 73.41 30.5802V40.1502H56.89L54.3 15.0002H54.82C55.3454 14.9637 55.8375 14.7292 56.1968 14.3441C56.5561 13.959 56.7559 13.4519 56.7559 12.9252C56.7559 12.3985 56.5561 11.8914 56.1968 11.5063C55.8375 11.1212 55.3454 10.8867 54.82 10.8502H22.72C22.4354 10.8304 22.1498 10.8694 21.8809 10.9648C21.612 11.0601 21.3656 11.2097 21.157 11.4043C20.9484 11.5989 20.782 11.8344 20.6683 12.096C20.5546 12.3577 20.4959 12.6399 20.4959 12.9252C20.4959 13.2105 20.5546 13.4927 20.6683 13.7544C20.782 14.016 20.9484 14.2515 21.157 14.4461C21.3656 14.6407 21.612 14.7903 21.8809 14.8857C22.1498 14.981 22.4354 15.02 22.72 15.0002H23.86L21.27 40.2502C18.2167 40.7069 15.2883 41.7802 12.6631 43.4048C10.0379 45.0294 7.77089 47.1714 6 49.7002V49.7002Z" stroke="#00008F" stroke-width="2" stroke-linejoin="round"/>
<path d="M83.07 55.0001H91.59M45.85 69.0001H57H45.85ZM83.07 48.3701H91.59H83.07ZM83.07 51.6601H91.59H83.07Z" stroke="#00008F" stroke-width="2" stroke-linecap="round" stroke-linejoin="round"/>
<path d="M60 72.0003C59.9981 74.2049 60.6502 76.3604 61.874 78.1941C63.0978 80.0279 64.8381 81.4572 66.8746 82.3013C68.9112 83.1454 71.1524 83.3663 73.3146 82.936C75.4767 82.5056 77.4626 81.4435 79.0208 79.8839C80.5789 78.3243 81.6393 76.3375 82.0677 74.175C82.4961 72.0125 82.2732 69.7714 81.4273 67.7356C80.5813 65.6998 79.1504 63.9608 77.3156 62.7387C75.4808 61.5166 73.3246 60.8663 71.12 60.8703C69.6544 60.8542 68.2004 61.1312 66.8433 61.6849C65.4862 62.2387 64.2535 63.0581 63.2176 64.095C62.1817 65.1318 61.3634 66.3653 60.8108 67.7228C60.2583 69.0804 59.9826 70.5347 60 72.0003V72.0003ZM64.84 72.0003C64.8381 70.7534 65.2061 69.534 65.8976 68.4964C66.5891 67.4589 67.5729 66.6498 68.7245 66.1718C69.8761 65.6937 71.1436 65.5681 72.3667 65.8109C73.5897 66.0536 74.7131 66.6539 75.5948 67.5355C76.4765 68.4172 77.0767 69.5407 77.3195 70.7637C77.5622 71.9867 77.4366 73.2542 76.9586 74.4058C76.4805 75.5574 75.6715 76.5412 74.6339 77.2327C73.5963 77.9242 72.3769 78.2923 71.13 78.2903C70.3028 78.2929 69.4832 78.1321 68.7183 77.8171C67.9534 77.502 67.2583 77.039 66.6729 76.4545C66.0875 75.87 65.6234 75.1756 65.3071 74.4113C64.9908 73.6469 64.8287 72.8275 64.83 72.0003H64.84Z" stroke="#00008F" stroke-width="2" stroke-linejoin="round"/>
<path d="M71.12 74.2403C72.3516 74.2403 73.35 73.2419 73.35 72.0103C73.35 70.7787 72.3516 69.7803 71.12 69.7803C69.8884 69.7803 68.89 70.7787 68.89 72.0103C68.89 73.2419 69.8884 74.2403 71.12 74.2403Z" stroke="#00008F" stroke-width="2" stroke-linejoin="round"/>
<path d="M24.8 69.0201C26.5783 69.0201 28.02 67.5784 28.02 65.8001C28.02 64.0217 26.5783 62.5801 24.8 62.5801C23.0216 62.5801 21.58 64.0217 21.58 65.8001C21.58 67.5784 23.0216 69.0201 24.8 69.0201Z" stroke="#00008F" stroke-width="2" stroke-linejoin="round"/>
<path d="M27.17 39.79L29.61 15H50.14L52.74 40.66V51.88H46.25C41.92 44.41 36.13 40.46 27.17 39.79V39.79Z" stroke="#00008F" stroke-width="2" stroke-linejoin="round"/>
<path d="M52.7401 43.4702L46.2001 37.5502C44.5301 38.9002 42.8701 39.4202 42.2001 38.6902C41.3701 37.8602 42.2001 35.7802 43.9601 34.0202C45.7201 32.2602 47.8101 31.4202 48.6401 32.2502C49.3701 32.8802 48.8501 34.5402 47.6401 36.1002" stroke="#00008F" stroke-width="2" stroke-linejoin="round"/>
</svg>

<svg width="96" height="96" viewBox="0 0 96 96" fill="none" xmlns="http://www.w3.org/2000/svg"><path d="M7.45 65.8A17.35 17.35 0 1024.8 48.45 17.38 17.38 0 007.45 65.8v0zm7.59 0a9.76 9.76 0 119.76 9.76A9.76 9.76 0 0115 65.8h.04z" stroke="#00008F" stroke-width="2" stroke-linejoin="round"/><path d="M6 49.7l3.32 2.39a19 19 0 0114-7.79l1-.1c12-.73 21.06 9.06 21.61 21.19h11.59c1.87-5.72 7.16-9.31 13.5-9.31s11.74 3.59 13.5 9.31h2.6c4.88 0 4.88-.73 4.88-1.87l-.21-17.45c-.31-3.43-1.24-5.92-5.19-5.92H76.52v-9.57a1.56 1.56 0 00-3.11 0v9.57H56.89L54.3 15h.52a2.08 2.08 0 000-4.15h-32.1a2.078 2.078 0 00-2.224 2.075A2.08 2.08 0 0022.72 15h1.14l-2.59 25.25A22.751 22.751 0 006 49.7v0z" stroke="#00008F" stroke-width="2" stroke-linejoin="round"/><path d="M83.07 55h8.52M45.85 69H57 45.85zm37.22-20.63h8.52-8.52zm0 3.29h8.52-8.52z" stroke="#00008F" stroke-width="2" stroke-linecap="round" stroke-linejoin="round"/><path d="M60 72a11.14 11.14 0 1011.12-11.13A11.001 11.001 0 0060 72v0zm4.84 0a6.3 6.3 0 116.29 6.29 6.282 6.282 0 01-6.3-6.29h.01z" stroke="#00008F" stroke-width="2" stroke-linejoin="round"/><path d="M71.12 74.24a2.23 2.23 0 100-4.46 2.23 2.23 0 000 4.46zM24.8 69.02a3.22 3.22 0 100-6.44 3.22 3.22 0 000 6.44zM27.17 39.79L29.61 15h20.53l2.6 25.66v11.22h-6.49c-4.33-7.47-10.12-11.42-19.08-12.09v0z" stroke="#00008F" stroke-width="2" stroke-linejoin="round"/><path d="M52.74 43.47l-6.54-5.92c-1.67 1.35-3.33 1.87-4 1.14-.83-.83 0-2.91 1.76-4.67 1.76-1.76 3.85-2.6 4.68-1.77.73.63.21 2.29-1 3.85" stroke="#00008F" stroke-width="2" stroke-linejoin="round"/></svg>
